images/Union.svg

<svg width="100" height="100" viewBox="0 0 100 100" fill="none" xmlns="http://www.w3.org/2000/svg">
<path d="M45 49C47.2091 49 49 47.2091 49 45C49 42.7909 47.2091 41 45 41C42.7909 41 41 42.7909 41 45C41 47.2091 42.7909 49 45 49Z" fill="url(#paint0_linear_285_159)"/>
<path fill-rule="evenodd" clip-rule="evenodd" d="M45 37C52.1797 37 58 31.1797 58 24C58 16.8203 52.1797 11 45 11C37.8203 11 32 16.8203 32 24C32 31.1797 37.8203 37 45 37ZM45 32C49.4183 32 53 28.4183 53 24C53 19.5817 49.4183 16 45 16C40.5817 16 37 19.5817 37 24C37 28.4183 40.5817 32 45 32Z" fill="url(#paint1_linear_285_159)"/>
<path fill-rule="evenodd" clip-rule="evenodd" d="M58 66C58 73.1797 52.1797 79 45 79C37.8203 79 32 73.1797 32 66C32 58.8203 37.8203 53 45 53C52.1797 53 58 58.8203 58 66ZM53 66C53 70.4183 49.4183 74 45 74C40.5817 74 37 70.4183 37 66C37 61.5817 40.5817 58 45 58C49.4183 58 53 61.5817 53 66Z" fill="url(#paint2_linear_285_159)"/>
<path fill-rule="evenodd" clip-rule="evenodd" d="M24 58C31.1797 58 37 52.1797 37 45C37 37.8203 31.1797 32 24 32C16.8203 32 11 37.8203 11 45C11 52.1797 16.8203 58 24 58ZM24 53C28.4183 53 32 49.4183 32 45C32 40.5817 28.4183 37 24 37C19.5817 37 16 40.5817 16 45C16 49.4183 19.5817 53 24 53Z" fill="url(#paint3_linear_285_159)"/>
<path fill-rule="evenodd" clip-rule="evenodd" d="M79 45C79 52.1797 73.1797 58 66 58C58.8203 58 53 52.1797 53 45C53 37.8203 58.8203 32 66 32C73.1797 32 79 37.8203 79 45ZM74 45C74 49.4183 70.4183 53 66 53C61.5817 53 58 49.4183 58 45C58 40.5817 61.5817 37 66 37C70.4183 37 74 40.5817 74 45Z" fill="url(#paint4_linear_285_159)"/>
<path fill-rule="evenodd" clip-rule="evenodd" d="M90 45C90 62.4147 80.1078 77.5189 65.636 85H86C88.1735 85 91.6723 85.3098 94.6764 87.3969C97.3905 89.2824 100 92.5 100 97C100 98.5 98.8807 100 97.5 100C96.1193 100 95.2024 98.3727 95 97.0069C94.5472 93.9514 93.0917 92.3841 91.8236 91.5031C90.0777 90.2902 87.8266 90 86 90H44V89.9891C19.609 89.4573 0 69.5186 0 45C0 20.1472 20.1472 0 45 0C69.8528 0 90 20.1472 90 45ZM85 45C85 67.0914 67.0914 85 45 85C22.9086 85 5 67.0914 5 45C5 22.9086 22.9086 5 45 5C67.0914 5 85 22.9086 85 45Z" fill="url(#paint5_linear_285_159)"/>
<defs>
<linearGradient id="paint0_linear_285_159" x1="0" y1="0" x2="107.806" y2="9.27613" gradientUnits="userSpaceOnUse">
<stop stop-color="#3F34EC"/>
<stop offset="1" stop-color="#13D8D4"/>
</linearGradient>
<linearGradient id="paint1_linear_285_159" x1="0" y1="0" x2="107.806" y2="9.27613" gradientUnits="userSpaceOnUse">
<stop stop-color="#3F34EC"/>
<stop offset="1" stop-color="#13D8D4"/>
</linearGradient>
<linearGradient id="paint2_linear_285_159" x1="0" y1="0" x2="107.806" y2="9.27613" gradientUnits="userSpaceOnUse">
<stop stop-color="#3F34EC"/>
<stop offset="1" stop-color="#13D8D4"/>
</linearGradient>
<linearGradient id="paint3_linear_285_159" x1="0" y1="0" x2="107.806" y2="9.27613" gradientUnits="userSpaceOnUse">
<stop stop-color="#3F34EC"/>
<stop offset="1" stop-color="#13D8D4"/>
</linearGradient>
<linearGradient id="paint4_linear_285_159" x1="0" y1="0" x2="107.806" y2="9.27613" gradientUnits="userSpaceOnUse">
<stop stop-color="#3F34EC"/>
<stop offset="1" stop-color="#13D8D4"/>
</linearGradient>
<linearGradient id="paint5_linear_285_159" x1="0" y1="0" x2="107.806" y2="9.27613" gradientUnits="userSpaceOnUse">
<stop stop-color="#3F34EC"/>
<stop offset="1" stop-color="#13D8D4"/>
</linearGradient>
</defs>
</svg>

<svg width="100" height="100" fill="none" xmlns="http://www.w3.org/2000/svg"><path d="M45 49a4 4 0 100-8 4 4 0 000 8z" fill="url(#paint0_linear_285_159)"/><path fill-rule="evenodd" clip-rule="evenodd" d="M45 37c7.18 0 13-5.82 13-13s-5.82-13-13-13-13 5.82-13 13 5.82 13 13 13zm0-5a8 8 0 100-16 8 8 0 000 16z" fill="url(#paint1_linear_285_159)"/><path fill-rule="evenodd" clip-rule="evenodd" d="M58 66c0 7.18-5.82 13-13 13s-13-5.82-13-13 5.82-13 13-13 13 5.82 13 13zm-5 0a8 8 0 11-16 0 8 8 0 0116 0z" fill="url(#paint2_linear_285_159)"/><path fill-rule="evenodd" clip-rule="evenodd" d="M24 58c7.18 0 13-5.82 13-13s-5.82-13-13-13-13 5.82-13 13 5.82 13 13 13zm0-5a8 8 0 100-16 8 8 0 000 16z" fill="url(#paint3_linear_285_159)"/><path fill-rule="evenodd" clip-rule="evenodd" d="M79 45c0 7.18-5.82 13-13 13s-13-5.82-13-13 5.82-13 13-13 13 5.82 13 13zm-5 0a8 8 0 11-16 0 8 8 0 0116 0z" fill="url(#paint4_linear_285_159)"/><path fill-rule="evenodd" clip-rule="evenodd" d="M90 45c0 17.415-9.892 32.519-24.364 40H86c2.174 0 5.672.31 8.676 2.397C97.391 89.282 100 92.5 100 97c0 1.5-1.12 3-2.5 3s-2.298-1.627-2.5-2.993c-.453-3.056-1.908-4.623-3.176-5.504C90.078 90.29 87.827 90 86 90H44v-.01C19.609 89.456 0 69.518 0 45 0 20.147 20.147 0 45 0s45 20.147 45 45zm-5 0c0 22.091-17.909 40-40 40S5 67.091 5 45 22.909 5 45 5s40 17.909 40 40z" fill="url(#paint5_linear_285_159)"/><defs><linearGradient id="paint0_linear_285_159" x1="0" y1="0" x2="107.806" y2="9.276" gradientUnits="userSpaceOnUse"><stop stop-color="#3F34EC"/><stop offset="1" stop-color="#13D8D4"/></linearGradient><linearGradient id="paint1_linear_285_159" x1="0" y1="0" x2="107.806" y2="9.276" gradientUnits="userSpaceOnUse"><stop stop-color="#3F34EC"/><stop offset="1" stop-color="#13D8D4"/></linearGradient><linearGradient id="paint2_linear_285_159" x1="0" y1="0" x2="107.806" y2="9.276" gradientUnits="userSpaceOnUse"><stop stop-color="#3F34EC"/><stop offset="1" stop-color="#13D8D4"/></linearGradient><linearGradient id="paint3_linear_285_159" x1="0" y1="0" x2="107.806" y2="9.276" gradientUnits="userSpaceOnUse"><stop stop-color="#3F34EC"/><stop offset="1" stop-color="#13D8D4"/></linearGradient><linearGradient id="paint4_linear_285_159" x1="0" y1="0" x2="107.806" y2="9.276" gradientUnits="userSpaceOnUse"><stop stop-color="#3F34EC"/><stop offset="1" stop-color="#13D8D4"/></linearGradient><linearGradient id="paint5_linear_285_159" x1="0" y1="0" x2="107.806" y2="9.276" gradientUnits="userSpaceOnUse"><stop stop-color="#3F34EC"/><stop offset="1" stop-color="#13D8D4"/></linearGradient></defs></svg>
